assets/roles/dancer.svg

<svg xmlns="http://www.w3.org/2000/svg" style="isolation:isolate" viewBox="3.2 752 1874.4 445.8"><path d="M3.2 1179.2V770q0-6 5.1-10.2 5.1-4.2 12.9-4.2h106.2q57 0 91.2 30.9t34.2 96.9v182.4q0 66.6-34.2 97.5-34.2 30.9-91.2 30.9H21.2q-7.8 0-12.9-4.5-5.1-4.5-5.1-10.5zm39.6-387v365.4h84.6q40.8 0 63.3-23.1t22.5-68.7V883.4q0-45.6-22.5-68.4-22.5-22.8-63.3-22.8H42.8zm263.4 385.2q0-3 .6-4.2l125.4-407.4q4.2-13.8 23.4-13.8t24 13.8l124.8 407.4q0 .6.3 1.8.3 1.2.3 1.8 0 7.2-7.8 12.3-7.8 5.1-16.2 5.1-11.4 0-15-10.2l-27.6-92.4H372.44L344.6 1184q-2.4 10.2-15.6 10.2-8.4 0-15.6-4.8-7.2-4.8-7.2-12zm149.4-361.8l-72.855 241.8H528.14L455.6 815.6zm207.6 363v-408q0-15 19.8-15 16.8 0 31.2 27.6l162 319.2V770q0-14.4 19.8-14.4t19.8 14.4v408.6q0 7.2-6 11.4t-13.8 4.2q-15 0-26.4-22.8L702.8 846.8v331.8q0 7.2-6 11.4t-13.8 4.2q-8.4 0-14.1-4.2-5.7-4.2-5.7-11.4zm339-109.2v-186q0-65.4 35.1-96.6 35.1-31.2 90.9-31.2 57 0 90.3 29.1t33.3 71.1q0 14.4-4.5 19.2-4.5 4.8-15.3 4.8-18.6 0-19.8-15-.6-9-2.4-17.4-1.8-8.4-7.2-18.9-5.4-10.5-14.1-18.3-8.7-7.8-24.3-12.9-15.6-5.1-36-5.1-86.4 0-86.4 91.2v186q0 91.8 88.8 91.8 25.2 0 42-6.9t24.6-20.1q7.8-13.2 10.5-22.5t4.5-24.3q1.8-15.6 19.8-15.6 10.8 0 15.3 5.1t4.5 19.5q0 42.6-33.9 72t-91.5 29.4q-55.2 0-89.7-31.2t-34.5-97.2zm318.6 109.2v-408q0-7.2 5.4-11.1 5.4-3.9 12.6-3.9h213.6q15 0 15 17.4 0 7.8-3.9 13.5t-11.1 5.7h-192v165h94.2q7.2 0 11.1 5.1 3.9 5.1 3.9 12.9 0 16.2-15 16.2h-94.2v166.2h192q6.6 0 10.8 5.4 4.2 5.4 4.2 13.2 0 18-15 18h-213.6q-7.2 0-12.6-4.2-5.4-4.2-5.4-11.4zm304.8 0V770q0-13.2 15-14.4h106.2q58.2 0 93.9 27.6t35.7 90.6q0 99.6-93.6 115.8l92.4 177.6q2.4 3 2.4 7.8 0 7.8-7.2 14.1t-15.6 6.3q-10.8 0-21-21l-92.4-180h-76.2v184.2q0 7.2-6 11.4t-13.8 4.2q-8.4 0-14.1-4.2-5.7-4.2-5.7-11.4zm39.6-386.4v168h81.6q90 0 90-84.6 0-83.4-90-83.4h-81.6z" fill-rule="evenodd"/></svg>

<?xml version="1.0" standalone="no"?><!-- Generator: Gravit.io --><svg xmlns="http://www.w3.org/2000/svg" xmlns:xlink="http://www.w3.org/1999/xlink" style="isolation:isolate" viewBox="3.2 752 1874.4 445.8"><path d=" M 3.2 1179.2 L 3.2 1179.2 L 3.2 770 L 3.2 770 Q 3.2 764 8.3 759.8 L 8.3 759.8 L 8.3 759.8 Q 13.4 755.6 21.2 755.6 L 21.2 755.6 L 127.4 755.6 L 127.4 755.6 Q 184.4 755.6 218.6 786.5 L 218.6 786.5 L 218.6 786.5 Q 252.8 817.4 252.8 883.4 L 252.8 883.4 L 252.8 1065.8 L 252.8 1065.8 Q 252.8 1132.4 218.6 1163.3 L 218.6 1163.3 L 218.6 1163.3 Q 184.4 1194.2 127.4 1194.2 L 127.4 1194.2 L 21.2 1194.2 L 21.2 1194.2 Q 13.4 1194.2 8.3 1189.7 L 8.3 1189.7 L 8.3 1189.7 Q 3.2 1185.2 3.2 1179.2 Z  M 42.8 792.2 L 42.8 1157.6 L 127.4 1157.6 L 127.4 1157.6 Q 168.2 1157.6 190.7 1134.5 L 190.7 1134.5 L 190.7 1134.5 Q 213.2 1111.4 213.2 1065.8 L 213.2 1065.8 L 213.2 883.4 L 213.2 883.4 Q 213.2 837.8 190.7 815 L 190.7 815 L 190.7 815 Q 168.2 792.2 127.4 792.2 L 127.4 792.2 L 42.8 792.2 L 42.8 792.2 Z  M 306.2 1177.4 L 306.2 1177.4 L 306.2 1177.4 Q 306.2 1174.4 306.8 1173.2 L 306.8 1173.2 L 432.2 765.8 L 432.2 765.8 Q 436.4 752 455.6 752 L 455.6 752 L 455.6 752 Q 474.8 752 479.6 765.8 L 479.6 765.8 L 604.4 1173.2 L 604.4 1173.2 Q 604.4 1173.8 604.7 1175 L 604.7 1175 L 604.7 1175 Q 605 1176.2 605 1176.8 L 605 1176.8 L 605 1176.8 Q 605 1184 597.2 1189.1 L 597.2 1189.1 L 597.2 1189.1 Q 589.4 1194.2 581 1194.2 L 581 1194.2 L 581 1194.2 Q 569.6 1194.2 566 1184 L 566 1184 L 538.4 1091.6 L 372.44 1091.6 L 344.6 1184 L 344.6 1184 Q 342.2 1194.2 329 1194.2 L 329 1194.2 L 329 1194.2 Q 320.6 1194.2 313.4 1189.4 L 313.4 1189.4 L 313.4 1189.4 Q 306.2 1184.6 306.2 1177.4 Z  M 455.6 815.6 L 382.745 1057.4 L 528.14 1057.4 L 455.6 815.6 L 455.6 815.6 Z  M 663.2 1178.6 L 663.2 1178.6 L 663.2 770.6 L 663.2 770.6 Q 663.2 755.6 683 755.6 L 683 755.6 L 683 755.6 Q 699.8 755.6 714.2 783.2 L 714.2 783.2 L 876.2 1102.4 L 876.2 770 L 876.2 770 Q 876.2 755.6 896 755.6 L 896 755.6 L 896 755.6 Q 915.8 755.6 915.8 770 L 915.8 770 L 915.8 1178.6 L 915.8 1178.6 Q 915.8 1185.8 909.8 1190 L 909.8 1190 L 909.8 1190 Q 903.8 1194.2 896 1194.2 L 896 1194.2 L 896 1194.2 Q 881 1194.2 869.6 1171.4 L 869.6 1171.4 L 702.8 846.8 L 702.8 1178.6 L 702.8 1178.6 Q 702.8 1185.8 696.8 1190 L 696.8 1190 L 696.8 1190 Q 690.8 1194.2 683 1194.2 L 683 1194.2 L 683 1194.2 Q 674.6 1194.2 668.9 1190 L 668.9 1190 L 668.9 1190 Q 663.2 1185.8 663.2 1178.6 Z  M 1002.2 1069.4 L 1002.2 1069.4 L 1002.2 883.4 L 1002.2 883.4 Q 1002.2 818 1037.3 786.8 L 1037.3 786.8 L 1037.3 786.8 Q 1072.4 755.6 1128.2 755.6 L 1128.2 755.6 L 1128.2 755.6 Q 1185.2 755.6 1218.5 784.7 L 1218.5 784.7 L 1218.5 784.7 Q 1251.8 813.8 1251.8 855.8 L 1251.8 855.8 L 1251.8 855.8 Q 1251.8 870.2 1247.3 875 L 1247.3 875 L 1247.3 875 Q 1242.8 879.8 1232 879.8 L 1232 879.8 L 1232 879.8 Q 1213.4 879.8 1212.2 864.8 L 1212.2 864.8 L 1212.2 864.8 Q 1211.6 855.8 1209.8 847.4 L 1209.8 847.4 L 1209.8 847.4 Q 1208 839 1202.6 828.5 L 1202.6 828.5 L 1202.6 828.5 Q 1197.2 818 1188.5 810.2 L 1188.5 810.2 L 1188.5 810.2 Q 1179.8 802.4 1164.2 797.3 L 1164.2 797.3 L 1164.2 797.3 Q 1148.6 792.2 1128.2 792.2 L 1128.2 792.2 L 1128.2 792.2 Q 1041.8 792.2 1041.8 883.4 L 1041.8 883.4 L 1041.8 1069.4 L 1041.8 1069.4 Q 1041.8 1161.2 1130.6 1161.2 L 1130.6 1161.2 L 1130.6 1161.2 Q 1155.8 1161.2 1172.6 1154.3 L 1172.6 1154.3 L 1172.6 1154.3 Q 1189.4 1147.4 1197.2 1134.2 L 1197.2 1134.2 L 1197.2 1134.2 Q 1205 1121 1207.7 1111.7 L 1207.7 1111.7 L 1207.7 1111.7 Q 1210.4 1102.4 1212.2 1087.4 L 1212.2 1087.4 L 1212.2 1087.4 Q 1214 1071.8 1232 1071.8 L 1232 1071.8 L 1232 1071.8 Q 1242.8 1071.8 1247.3 1076.9 L 1247.3 1076.9 L 1247.3 1076.9 Q 1251.8 1082 1251.8 1096.4 L 1251.8 1096.4 L 1251.8 1096.4 Q 1251.8 1139 1217.9 1168.4 L 1217.9 1168.4 L 1217.9 1168.4 Q 1184 1197.8 1126.4 1197.8 L 1126.4 1197.8 L 1126.4 1197.8 Q 1071.2 1197.8 1036.7 1166.6 L 1036.7 1166.6 L 1036.7 1166.6 Q 1002.2 1135.4 1002.2 1069.4 Z  M 1320.8 1178.6 L 1320.8 1178.6 L 1320.8 770.6 L 1320.8 770.6 Q 1320.8 763.4 1326.2 759.5 L 1326.2 759.5 L 1326.2 759.5 Q 1331.6 755.6 1338.8 755.6 L 1338.8 755.6 L 1552.4 755.6 L 1552.4 755.6 Q 1567.4 755.6 1567.4 773 L 1567.4 773 L 1567.4 773 Q 1567.4 780.8 1563.5 786.5 L 1563.5 786.5 L 1563.5 786.5 Q 1559.6 792.2 1552.4 792.2 L 1552.4 792.2 L 1360.4 792.2 L 1360.4 957.2 L 1454.6 957.2 L 1454.6 957.2 Q 1461.8 957.2 1465.7 962.3 L 1465.7 962.3 L 1465.7 962.3 Q 1469.6 967.4 1469.6 975.2 L 1469.6 975.2 L 1469.6 975.2 Q 1469.6 991.4 1454.6 991.4 L 1454.6 991.4 L 1360.4 991.4 L 1360.4 1157.6 L 1552.4 1157.6 L 1552.4 1157.6 Q 1559 1157.6 1563.2 1163 L 1563.2 1163 L 1563.2 1163 Q 1567.4 1168.4 1567.4 1176.2 L 1567.4 1176.2 L 1567.4 1176.2 Q 1567.4 1194.2 1552.4 1194.2 L 1552.4 1194.2 L 1338.8 1194.2 L 1338.8 1194.2 Q 1331.6 1194.2 1326.2 1190 L 1326.2 1190 L 1326.2 1190 Q 1320.8 1185.8 1320.8 1178.6 Z  M 1625.6 1178.6 L 1625.6 1178.6 L 1625.6 770 L 1625.6 770 Q 1625.6 756.8 1640.6 755.6 L 1640.6 755.6 L 1746.8 755.6 L 1746.8 755.6 Q 1805 755.6 1840.7 783.2 L 1840.7 783.2 L 1840.7 783.2 Q 1876.4 810.8 1876.4 873.8 L 1876.4 873.8 L 1876.4 873.8 Q 1876.4 973.4 1782.8 989.6 L 1782.8 989.6 L 1875.2 1167.2 L 1875.2 1167.2 Q 1877.6 1170.2 1877.6 1175 L 1877.6 1175 L 1877.6 1175 Q 1877.6 1182.8 1870.4 1189.1 L 1870.4 1189.1 L 1870.4 1189.1 Q 1863.2 1195.4 1854.8 1195.4 L 1854.8 1195.4 L 1854.8 1195.4 Q 1844 1195.4 1833.8 1174.4 L 1833.8 1174.4 L 1741.4 994.4 L 1665.2 994.4 L 1665.2 1178.6 L 1665.2 1178.6 Q 1665.2 1185.8 1659.2 1190 L 1659.2 1190 L 1659.2 1190 Q 1653.2 1194.2 1645.4 1194.2 L 1645.4 1194.2 L 1645.4 1194.2 Q 1637 1194.2 1631.3 1190 L 1631.3 1190 L 1631.3 1190 Q 1625.6 1185.8 1625.6 1178.6 Z  M 1665.2 792.2 L 1665.2 960.2 L 1746.8 960.2 L 1746.8 960.2 Q 1836.8 960.2 1836.8 875.6 L 1836.8 875.6 L 1836.8 875.6 Q 1836.8 792.2 1746.8 792.2 L 1746.8 792.2 L 1665.2 792.2 L 1665.2 792.2 Z " fill-rule="evenodd" fill="rgb(0,0,0)"/></svg>
